X: 20741
T: Johnny Going To Ceili
R: reel
M: 4/4
K: Dmixolydian
||A3G Addc|A2AG ED (3EFG|A~G3 A2dB|cBAG EADG|
A3G Addc|A2AG ED (3EFG|A~G3 c4|cdAG EAD2||
e~g3 ed (3Bcd|edeg a3g|e~g3 edcA|GA (3Bcd ~e3 dg|
e~g3 ed (3Bcd|edeg a3g|eaag ege|dBA (3Bcd egdB||
A3G Addc|A2AG ED (3EFG|A~G3 c4|cdAG EADG|
A3G Addc|A2AG ED ED|Eccc AddB|cBAG EADG||

